X:1
T:346 - Meu Deus ProverÃ¡
T:Letra: Justus Henry Nelson (1849-1931)
T:MÃºsica: Ira David Sankey (1840-1908)
L:1/4
Q:1/4=115
M:4/4
K:Dbmaj
V:1
A | "Db"A2 G F | F2 E D | "Ebm/Ab"(D C) "Ab7"B, C | "Db"D3 D | "Gb/Db"G2 F B | "Db"A2 F D | "Ab"E2 F "Eb"=G | "Ab7"A3 A | "Db"A2 G F | F2 E D | "Ebm/Ab"(D C) "Ab7"B, C | "Db"D3 D | "Gb/Db"G2 F B | "Db"A2 F D | "Db/Ab"F2 "Ab7"F3/2 E/2 | "Db"D3 || E | "Ab"E2 E3/2 F/2 | "Ab7"G3 F | "Db"F2 F3/2 G/2 | A3 A | d2 c3/2 B/2 | A2 F D | "Db/Ab"F2 "Ab7"F3/2 E/2 | "Db"D3 |]
w:1.~Na for-tea-fli-Ã§Ã£o, nos pe-ri_gos e dor, Na vil tra-i-Ã§Ã£o e no ne-gro ter-ror, Com to-daa cer-te-za vi-tÃ³_ria vi-rÃ¡; Ã‰ fir-mea pro-mes-sa: 'Meu Deus pro-ve-rÃ¡.' 'Meu Deus pro-ve-rÃ¡, meu Deus pro-ve-rÃ¡.' Ã‰ fir-mea pro-mes-sa: 'Meu Deus pro-ve-rÃ¡.'
w:2.~Ã€s a-ves do cÃ©u dÃ¡ sus-ten_too bom Deus, E com mais pra-zer E-le cui-da dos seus, Pois na-da de bom aos fi-Ã©is_ fal-ta-rÃ¡; Que gran-de ver-da-de: 'Meu Deus pro-ve-rÃ¡.' 'Meu Deus pro-ve-rÃ¡, meu Deus pro-ve-rÃ¡.' Que gran-de ver-da-de: 'Meu Deus pro-ve-rÃ¡.'
w:3.~Se vem Sa-ta-nÃ¡s e nos quer_ as-sus-tar Com me-do fa-laz pa-raa fÃ© nos ti-rar, NÃ£o po-de; queÃ© nos-sae pra sem_pre se-rÃ¡ A ri-ca pro-mes-sa: 'Meu Deus pro-ve-rÃ¡.' 'Meu Deus pro-ve-rÃ¡, meu Deus pro-ve-rÃ¡.' A ri-ca pro-mes-sa: 'Meu Deus pro-ve-rÃ¡.'
w:4.~A nos-sa vir-tu-deE-le po_deau-men-tar; Je-sus nos a-ju-daa vi-tÃ³-riaa ga-nhar; Do vil i-ni-mi-go nos es_con-de-rÃ¡; Com gran-de lar-gue-za: 'Meu Deus pro-ve-rÃ¡'. 'Meu Deus pro-ve-rÃ¡, meu Deus pro-ve-rÃ¡.' Com gran-de lar-gue-za: 'Meu Deus pro-ve-rÃ¡.'
w:5.~Na ho-ra fi-nal, quan-doa mor_te che-gar, A voz do Se-nhor sÃ³ nos hÃ¡ dea-le-grar; E mes-mo na mor-te eu hei_ de can-tar Com ple-na cer-te-za: 'Meu Deus pro-ve-rÃ¡.' 'Meu Deus pro-ve-rÃ¡, meu Deus pro-ve-rÃ¡.' Com ple-na cer-te-za: 'Meu Deus pro-ve-rÃ¡.'
W:
W:
W:1. Na forte afliÃ§Ã£o, nos perigos e dor,
W:Na vil traiÃ§Ã£o e no negro terror,
W:Com toda a certeza vitÃ³ria virÃ¡;
W:Ã‰ firme a promessa: 'Meu Deus proverÃ¡.'
W:'Meu Deus proverÃ¡, meu Deus proverÃ¡.'
W:Ã‰ firme a promessa: 'Meu Deus proverÃ¡.'
W:
W:2. Ã€s aves do cÃ©u dÃ¡ sustento o bom Deus,
W:E com mais prazer Ele cuida dos seus,
W:Pois nada de bom aos fiÃ©is faltarÃ¡;
W:Que grande verdade: 'Meu Deus proverÃ¡.'
W:'Meu Deus proverÃ¡, meu Deus proverÃ¡.'
W:Que grande verdade: 'Meu Deus proverÃ¡.'
W:
W:3. Se vem SatanÃ¡s e nos quer assustar
W:Com medo falaz para a fÃ© nos tirar,
W:NÃ£o pode; que Ã© nossa e pra sempre serÃ¡
W:A rica promessa: 'Meu Deus proverÃ¡.'
W:'Meu Deus proverÃ¡, meu Deus proverÃ¡.'
W:A rica promessa: 'Meu Deus proverÃ¡.'
W:
W:
W:
W:4. A nossa virtude Ele pode aumentar;
W:Jesus nos ajuda a vitÃ³ria a ganhar;
W:Do vil inimigo nos esconderÃ¡;
W:Com grande largueza: 'Meu Deus proverÃ¡'.
W:'Meu Deus proverÃ¡, meu Deus proverÃ¡.'
W:Com grande largueza: 'Meu Deus proverÃ¡.'
W:
W:5. Na hora final, quando a morte chegar,
W:A voz do Senhor sÃ³ nos hÃ¡ de alegrar;
W:E mesmo na morte eu hei de cantar
W:Com plena certeza: 'Meu Deus proverÃ¡.'
W:'Meu Deus proverÃ¡, meu Deus proverÃ¡.'
W:Com plena certeza: 'Meu Deus proverÃ¡.'
W:
W:

